Newaita-dark/.DP/16/telegram-attention-panel.svg

<svg xmlns="http://www.w3.org/2000/svg" xmlns:xlink="http://www.w3.org/1999/xlink" width="16px" height="16px" viewBox="0 0 16 16" version="1.1">
<g id="surface1">
<path style=" stroke:none;fill-rule:nonzero;fill:rgb(93.333334%,93.333334%,93.333334%);fill-opacity:1;" d="M 13 2.335938 C 12.914062 2.335938 12.828125 2.351562 12.742188 2.382812 L 2.453125 6.453125 C 1.859375 6.6875 1.894531 7.539062 2.507812 7.722656 L 6.945312 9.054688 L 8.277344 13.496094 C 8.460938 14.105469 9.3125 14.144531 9.550781 13.546875 L 9.726562 13.097656 C 9.433594 12.710938 9.261719 12.226562 9.261719 11.703125 C 9.261719 10.554688 10.089844 9.605469 11.183594 9.417969 L 13.617188 3.257812 C 13.71875 3 13.652344 2.703125 13.449219 2.515625 C 13.324219 2.398438 13.164062 2.339844 13 2.335938 Z M 13 2.335938 "/>
<path style=" stroke:none;fill-rule:nonzero;fill:rgb(93.333334%,31.764707%,30.980393%);fill-opacity:1;" d="M 11.578125 10.046875 C 12.488281 10.046875 13.230469 10.789062 13.230469 11.703125 C 13.230469 12.613281 12.488281 13.355469 11.578125 13.355469 C 10.664062 13.355469 9.921875 12.613281 9.921875 11.703125 C 9.921875 10.789062 10.664062 10.046875 11.578125 10.046875 Z M 11.578125 10.046875 "/>
</g>
</svg>

<svg xmlns="http://www.w3.org/2000/svg" width="16pt" height="16pt" viewBox="0 0 16 16"><path d="M13 2.336a.75.75 0 0 0-.258.047L2.453 6.453c-.594.234-.558 1.086.055 1.27l4.437 1.332 1.332 4.441c.184.61 1.036.649 1.274.05l.176-.448a2.302 2.302 0 0 1-.465-1.395c0-1.148.828-2.098 1.922-2.285l2.433-6.16A.676.676 0 0 0 13 2.336zm0 0" fill="#bdbdbd"/><path d="M11.578 10.047c.91 0 1.652.742 1.652 1.656a1.655 1.655 0 0 1-3.308 0c0-.914.742-1.656 1.656-1.656zm0 0" fill="#ef5350"/></svg>
